svg/wifi.svg

<svg width="32" height="32" viewBox="0 0 32 32" fill="none" xmlns="http://www.w3.org/2000/svg">
<path d="M17.3137 23C18.0953 22.2184 18.0944 20.9522 17.3137 20.1716C16.5331 19.3909 15.2669 19.39 14.4853 20.1716C13.7037 20.9532 13.7046 22.2194 14.4853 23C15.2659 23.7807 16.5321 23.7816 17.3137 23Z" fill="black"/>
<path fill-rule="evenodd" clip-rule="evenodd" d="M5.29289 13.8076C4.90237 13.4171 4.90237 12.7839 5.29289 12.3934C11.1508 6.53554 20.6482 6.53554 26.5061 12.3934C26.8966 12.7839 26.8966 13.4171 26.5061 13.8076C26.1156 14.1981 25.4824 14.1981 25.0919 13.8076C20.0151 8.7308 11.7839 8.7308 6.70711 13.8076C6.31658 14.1981 5.68342 14.1981 5.29289 13.8076Z" fill="black"/>
<path fill-rule="evenodd" clip-rule="evenodd" d="M9.53553 18.0503C9.14501 17.6597 9.14501 17.0266 9.53553 16.636C13.0503 13.1213 18.7487 13.1213 22.2635 16.636C22.654 17.0266 22.654 17.6597 22.2635 18.0503C21.8729 18.4408 21.2398 18.4408 20.8492 18.0503C18.1156 15.3166 13.6834 15.3166 10.9497 18.0503C10.5592 18.4408 9.92606 18.4408 9.53553 18.0503Z" fill="black"/>
</svg>

<svg width="32" height="32" fill="none" xmlns="http://www.w3.org/2000/svg"><path d="M17.314 23a2 2 0 1 0-2.828-2.828A2 2 0 0 0 17.314 23z" fill="#000"/><path fill-rule="evenodd" clip-rule="evenodd" d="M5.293 13.808a1 1 0 0 1 0-1.415c5.858-5.857 15.355-5.857 21.213 0a1 1 0 0 1-1.414 1.415c-5.077-5.077-13.308-5.077-18.385 0a1 1 0 0 1-1.414 0z" fill="#000"/><path fill-rule="evenodd" clip-rule="evenodd" d="M9.536 18.05a1 1 0 0 1 0-1.414 9 9 0 0 1 12.728 0 1 1 0 0 1-1.415 1.414 7 7 0 0 0-9.9 0 1 1 0 0 1-1.413 0z" fill="#000"/></svg>
